X:1
T:Title
%%score { ( 1 3 ) | ( 2 4 ) }
L:1/8
M:6/8
K:C
V:1 treble nm="Grand Piano"
V:3 treble 
V:2 bass 
V:4 bass 
V:1
 z3 z2[Q:1/4=87] [CE]/[DF]/ | [EG][_E^F][=EG] [Ec][EB][EA] | [FB]FF F2 D/E/ | FEF [FB][FA][FG] | %4
 [EA]EE E2 E/[DF]/ | [EG][_E^F][=EG] [Ge][Gd][Gc] | dAA A2 A/A/ | Gcc [FB][FA][FB] | %8
[M:5/8] [Ec]-[Ec]- [Ec]3 |[M:1/8] [EG] |[M:3/4] [EG][_E^F] [=EG][Ec] [CE][D=F] | G4 z2 | %12
 [FA][GA] [GA][^Fd] [Fd][Fe] |[M:7/8] d-d-d- d3 z |[M:3/4] [Ee][Ge] d c2 G/G/ | %15
[M:7/8] [Gc][Gc][GB] A3 A/A/ |[M:3/4] Gc cB A[DFB] |[M:5/8] c-c- c3 |] %18
V:2
 z3 z2 [C,G,]/[C,G,]/ | [C,C][C,C][C,C] [C,G,][C,G,][C,G,] | %2
 [D,G,][G,B,D][G,B,D] [G,B,D]2 [F,G,B,]/[E,G,C]/ | [D,G,B,][D,G,B,][D,G,B,] [G,,G,][A,,G,][B,,G,] | %4
 [C,G,][C,G,C][C,G,C] [C,G,C]2 [C,G,C]/[C,G,]/ | [C,C][C,C][C,C] [C,C][D,B,][E,C] | %6
 [F,A,F][F,CF][F,CF] [F,CF]2 [^F,C_E]/[F,CE]/ | [G,CE][G,CE][G,CE] [G,,G,][G,,G,][G,,G,] | %8
[M:5/8] [C,G,]-[C,G,]- [C,G,]3 |[M:1/8] [C,C] |[M:3/4] [C,C][C,C] [C,C][C,G,] [C,G,][C,G,] | %11
 [C,C][C,C] [D,B,] [E,C]2 [C,C] | [F,C][E,^C] [E,C][D,D] [D,A,][D,=C] | %13
[M:7/8][K:treble] [G,B,G][G,B,][A,C] [G,B,]3 [G,B,F]/[G,B,F]/ | %14
[M:3/4][K:bass] [C,C][C,C][K:treble] [G,B,F] [A,CE]2[K:bass] [E,C]/[E,C]/ | %15
[M:7/8] [E,C][E,C][E,C] [F,CF]3 [^F,CD]/[F,CD]/ | %16
[M:3/4][K:treble] [G,CE][G,CE] [G,CE][G,DF] [G,CF][K:bass]G,, |[M:5/8] z B,A, G,2 |] %18
V:3
 x6 | x6 | x6 | x6 | x6 | x6 | x6 | x6 |[M:5/8] x5 |[M:1/8] x |[M:3/4] x6 | EE F G2 [EG] | x6 | %13
[M:7/8] z G^F =F3 G/G/ |[M:3/4] x6 |[M:7/8] x7 |[M:3/4] x6 |[M:5/8] [CE]GF E2 |] %18
V:4
 x6 | x6 | x6 | x6 | x6 | x6 | x6 | x6 |[M:5/8] x5 |[M:1/8] x |[M:3/4] x6 | x6 | x6 | %13
[M:7/8][K:treble] x7 |[M:3/4][K:bass] x2[K:treble] x3[K:bass] x |[M:7/8] x7 | %16
[M:3/4][K:treble] x5[K:bass] x |[M:5/8] C,-C,- C,3 |] %18

